icons/algolia.svg

<?xml version="1.0" encoding="UTF-8"?>
<svg width="512px" height="127px" viewBox="0 0 512 127" version="1.1" xmlns="http://www.w3.org/2000/svg" xmlns:xlink="http://www.w3.org/1999/xlink" preserveAspectRatio="xMidYMid">
		<g fill-rule="nonzero">
				<path d="M16.6452675,0.05244444 L109.774486,0.05244444 C118.939918,0.05244444 126.419753,7.49540741 126.419753,16.6977119 L126.419753,109.832198 C126.419753,118.99763 118.97679,126.472198 109.774486,126.472198 L16.6452675,126.472198 C7.47983539,126.472198 1.42108547e-14,119.034502 1.42108547e-14,109.832198 L1.42108547e-14,16.655572 C1.42108547e-14,7.49540741 7.43769547,0.05244444 16.6452675,0.05244444" fill="#5468FF"></path>
				<path d="M76.3838683,28.2746008 L76.3838683,23.9394568 C76.381542,20.9099343 73.9246674,18.4554175 70.895144,18.456 L58.1004115,18.456 C55.0708882,18.4554175 52.6140136,20.9099343 52.6116872,23.9394568 L52.6116872,28.3904856 C52.6116872,28.8856296 53.0699588,29.233284 53.5703704,29.1173992 C57.1897488,28.0723616 60.9386179,27.5439023 64.7058436,27.5476872 C68.356214,27.5476872 71.9697119,28.0428313 75.4620576,29.0015144 C75.9255967,29.1173992 76.3838683,28.7750123 76.3838683,28.2746008 M41.3181893,33.9476872 L39.1321811,31.761679 C38.1035245,30.7322944 36.7079298,30.1539309 35.2526749,30.1539309 C33.79742,30.1539309 32.4018252,30.7322944 31.3731687,31.761679 L28.7604938,34.3690864 C27.7288917,35.3944227 27.148814,36.7888432 27.148814,38.2433251 C27.148814,39.697807 27.7288917,41.0922275 28.7604938,42.1175638 L30.9096296,44.2666996 C31.257284,44.6090864 31.7576955,44.5300741 32.0632099,44.1876872 C33.3311643,42.4463098 34.731178,40.8050359 36.2508642,39.2783868 C37.7833371,37.7406904 39.4393708,36.3313001 41.2023045,35.0643951 C41.5857778,34.8326255 41.6237037,34.2953416 41.3181893,33.9476872 M64.6679177,47.7116379 L64.6679177,66.4639012 C64.6679177,67.0011852 65.2473416,67.3857119 65.7424856,67.11707 L82.4140905,58.4889218 C82.7933498,58.2992922 82.9092346,57.8357531 82.7196049,57.4564938 C79.2641317,51.3936132 72.8483292,47.2533663 65.4369712,46.9847243 C65.0524444,46.9847243 64.6679177,47.2902387 64.6679177,47.7116379 M64.6679177,92.8856296 C50.7670123,92.8856296 39.4735144,81.6079342 39.4735144,67.7280988 C39.4735144,53.8482634 50.7670123,42.5758354 64.6679177,42.5758354 C78.5740905,42.5758354 89.8633745,53.8482634 89.8633745,67.7280988 C89.8633745,81.6079342 78.6120165,92.8856296 64.6679177,92.8856296 M64.6679177,31.9934486 C44.9253663,31.9934486 28.9121975,47.9855473 28.9121975,67.7280988 C28.9121975,87.4759177 44.9253663,103.431144 64.6679177,103.431144 C84.4104691,103.431144 100.423638,87.4390453 100.423638,67.6912263 C100.423638,47.9434074 84.4473416,31.9934486 64.6679177,31.9934486" fill="#FFFFFF"></path>
				<path d="M252.011457,100.323272 C227.396477,100.438156 227.396477,80.4585679 227.396477,77.2770041 L227.354337,2.4312428 L242.370897,0.05033745 L242.370897,74.4378272 C242.370897,76.2445761 242.370897,87.6697613 252.010403,87.7066337 L252.010403,100.322272 L252.011457,100.323272 Z M191.140346,88.0911605 C195.748346,88.0911605 199.168,87.8225185 201.548905,87.3642469 L201.548905,72.1043292 C200.360131,71.7882323 199.153464,71.5437328 197.935407,71.3721481 C196.206846,71.1158137 194.461736,70.9872896 192.714272,70.9876214 C191.06028,70.9876214 189.369416,71.1035062 187.683819,71.3721481 C185.992955,71.6039177 184.454848,72.0621893 183.111638,72.715358 C181.768428,73.3685267 180.65172,74.2903374 179.845794,75.4755226 C179.002996,76.6659753 178.618469,77.3560165 178.618469,79.1574979 C178.618469,82.6814486 179.845794,84.7199671 182.073942,86.0579095 C184.302091,87.4011193 187.336165,88.0911605 191.140346,88.0911605 Z M189.834008,33.6411193 C194.785449,33.6411193 198.972049,34.2574156 202.353778,35.4847407 C205.731292,36.7120658 208.459852,38.434535 210.455177,40.6205432 C212.493695,42.8434239 213.873778,45.7984856 214.71763,48.943177 C215.602568,52.0878683 216.023967,55.5380741 216.023967,59.3306667 L216.023967,97.9097613 C213.722074,98.4049053 210.223407,98.9790617 205.541663,99.669103 C200.857811,100.359144 195.596642,100.706798 189.753942,100.706798 C185.87707,100.706798 182.305712,100.322272 179.118881,99.595358 C175.889909,98.8684444 173.166617,97.6779918 170.859457,96.0292675 C168.594436,94.3805432 166.829827,92.2682798 165.52349,89.6661399 C164.254025,87.053465 163.600856,83.3767572 163.600856,79.5420247 C163.600856,75.8600494 164.32777,73.521284 165.755259,70.9876214 C167.209086,68.4592263 169.168593,66.3891029 171.62851,64.777251 C174.1253,63.1653992 176.964477,62.0170864 180.230321,61.3270453 C183.496165,60.6370041 186.914765,60.2893498 190.443984,60.2893498 C192.097975,60.2893498 193.825712,60.4052346 195.669333,60.5948642 C197.476082,60.7897613 199.435588,61.1374156 201.510979,61.6325597 L201.510979,59.1779095 C201.510979,57.4554403 201.316082,55.806716 200.894683,54.2738765 C200.489646,52.7632774 199.753749,51.3616551 198.74028,50.1705021 C197.702584,48.9800494 196.364642,48.0582387 194.673778,47.4103374 C192.982914,46.7571687 190.82851,46.2567572 188.257975,46.2567572 C184.802502,46.2567572 181.652543,46.6781564 178.771226,47.1785679 C175.889909,47.6737119 173.509004,48.2531358 171.702255,48.901037 L169.900774,36.5961811 C171.781267,35.9430123 174.583572,35.2898436 178.19707,34.6419424 C181.8053,33.9466337 185.68744,33.6411193 189.832955,33.6411193 L189.834008,33.6411193 Z M486.404214,87.6697613 C491.013267,87.6697613 494.426601,87.4011193 496.807506,86.9375802 L496.807506,71.68293 C495.964708,71.4511605 494.774255,71.1825185 493.199276,70.950749 C491.469293,70.6944777 489.722787,70.5659546 487.973926,70.5662222 C486.325202,70.5662222 484.634337,70.682107 482.943473,70.950749 C481.257877,71.1825185 479.71977,71.6407901 478.37656,72.2939588 C477.028082,72.9471276 475.916642,73.8689383 475.110716,75.0541235 C474.26265,76.2445761 473.883391,76.9346173 473.883391,78.7360988 C473.883391,82.2600494 475.110716,84.2985679 477.338864,85.6365103 C479.603885,87.0165926 482.601086,87.6697613 486.404214,87.6697613 Z M485.134749,33.2618601 C490.086189,33.2618601 494.27279,33.8728889 497.654519,35.100214 C501.030979,36.3275391 503.759539,38.0500082 505.755918,40.2360165 C507.752296,42.4220247 509.174519,45.4139588 510.017317,48.5586502 C510.902255,51.7033416 511.323654,55.1535473 511.323654,58.9514074 L511.323654,97.5252346 C509.021761,98.0203786 505.524148,98.594535 500.84135,99.289844 C496.158551,99.979885 490.896329,100.322272 485.054683,100.322272 C481.177811,100.322272 477.606453,99.937745 474.420675,99.210831 C471.191704,98.4839177 468.468412,97.293465 466.161251,95.6447407 C463.89623,93.9960165 462.131621,91.8837531 460.825284,89.2816132 C459.555819,86.6742058 458.90265,82.9922305 458.90265,79.1574979 C458.90265,75.4755226 459.634831,73.1367572 461.057053,70.6030947 C462.510881,68.0746996 464.470387,66.0045761 466.930305,64.3927243 C469.427095,62.7861399 472.266272,61.6325597 475.532115,60.9425185 C478.797959,60.2524774 482.21656,59.9100905 485.751045,59.9100905 C487.39977,59.9100905 489.127506,60.0259753 490.971128,60.2156049 C492.814749,60.4052346 494.737383,60.7528889 496.807506,61.2533004 L496.807506,58.7986502 C496.807506,57.0709136 496.617877,55.4221893 496.196477,53.8893498 C495.792598,52.3782982 495.056573,50.976432 494.042074,49.7859753 C493.004379,48.5955226 491.666436,47.6737119 489.975572,47.0258107 C488.283654,46.372642 486.130305,45.8774979 483.55977,45.8774979 C480.104296,45.8774979 476.954337,46.2988971 474.073021,46.7940412 C471.191704,47.2944527 468.810798,47.8686091 467.004049,48.5217778 L465.202568,36.2116543 C467.083062,35.5584856 469.885366,34.9105844 473.498864,34.2574156 C477.107095,33.6042469 480.983967,33.2618601 485.134749,33.2618601 Z M440.045037,26.129679 C445.074436,26.129679 449.189399,22.063177 449.189399,17.0379918 C449.189399,12.0180741 445.116576,7.95157202 440.045037,7.95157202 C434.977712,7.95157202 430.905942,12.0180741 430.905942,17.0379918 C430.905942,22.063177 435.014584,26.129679 440.045037,26.129679 Z M447.609152,100.322272 L432.516741,100.322272 L432.516741,35.595358 L447.608099,33.2197202 L447.608099,100.322272 L447.609152,100.322272 Z M421.149498,100.323272 C396.534519,100.438156 396.534519,80.4585679 396.534519,77.2770041 L396.492379,2.4312428 L411.509992,0.05033745 L411.509992,74.4378272 C411.509992,76.2445761 411.509992,87.6697613 421.149498,87.7066337 L421.149498,100.323272 Z M372.335671,67.1950288 C372.335671,60.710749 370.913449,55.3063045 368.14907,51.5505844 C365.383638,47.7527243 361.506765,45.8774979 356.550058,45.8774979 C351.598617,45.8774979 347.715424,47.7527243 344.955259,51.5505844 C342.189827,55.343177 340.842403,60.710749 340.842403,67.1950288 C340.842403,73.7530535 342.227753,78.1566749 344.993185,81.954535 C347.758617,85.7892675 351.63549,87.6697613 356.592198,87.6697613 C361.543638,87.6697613 365.425778,85.7523951 368.19121,81.954535 C370.955588,78.1198025 372.335671,73.7530535 372.335671,67.1950288 Z M387.695671,67.1581564 C387.695671,72.220214 386.968757,76.049679 385.468576,80.2320658 C383.972609,84.4091852 381.860346,87.9752757 379.137053,90.9303374 C376.408494,93.8801317 373.14265,96.1820247 369.301597,97.7938765 C365.46265,99.400461 359.546206,100.322272 356.591144,100.322272 C353.630815,100.285399 347.757564,99.442601 343.954436,97.7938765 C340.151309,96.1451523 336.885465,93.8801317 334.162173,90.9303374 C331.433613,87.9752757 329.322403,84.4091852 327.784296,80.2320658 C326.250403,76.049679 325.482403,72.220214 325.482403,67.1581564 C325.482403,62.0960988 326.171391,57.2236708 327.709498,53.0834239 C329.247605,48.943177 331.396741,45.4139588 334.162173,42.4641646 C336.927605,39.5091029 340.230321,37.2440823 343.991309,35.6374979 C347.794436,34.0256461 351.982091,33.2618601 356.512132,33.2618601 C361.04744,33.2618601 365.229827,34.0625185 369.069827,35.6374979 C372.915095,37.2440823 376.218864,39.5091029 378.905284,42.4641646 C381.627523,45.4139588 383.74084,48.943177 385.278947,53.0834239 C386.890798,57.2236708 387.696724,62.0960988 387.696724,67.1581564 L387.695671,67.1581564 Z M274.672198,67.1581564 C274.672198,73.4422716 276.05228,80.4216955 278.817712,83.3346173 C281.583144,86.2528066 285.153449,87.7066337 289.537053,87.7066337 C291.917959,87.7066337 294.182979,87.3642469 296.294189,86.7110782 C298.406453,86.0579095 300.093103,85.288856 301.44158,84.3723128 L301.44158,47.1416955 C300.367012,46.9099259 295.87279,45.9881152 291.528165,45.8774979 C286.076313,45.7194733 281.930798,47.9476214 279.012609,51.5084444 C276.130239,55.0798025 274.672198,61.3270453 274.672198,67.1581564 Z M316.417053,96.7561811 C316.417053,106.996181 313.804379,114.470749 308.541103,119.227292 C303.284148,123.978568 295.256494,126.359473 284.426535,126.359473 C280.47065,126.359473 272.253366,125.59042 265.684807,124.136593 L268.102584,112.247868 C273.596576,113.396181 280.855177,113.706963 284.658305,113.706963 C290.684313,113.706963 294.987852,112.479638 297.558387,110.024988 C300.134189,107.570337 301.398387,103.930502 301.398387,99.094947 L301.398387,96.6402963 C299.90242,97.3672099 297.942914,98.0993909 295.525136,98.8684444 C293.107358,99.595358 290.305053,99.979885 287.149827,99.979885 C283.004313,99.979885 279.238058,99.326716 275.824724,98.0203786 C272.406123,96.7193086 269.445794,94.8019424 267.028016,92.2682798 C264.610239,89.7398848 262.687605,86.558321 261.344395,82.7604609 C260.001185,78.9626008 259.305877,72.1780741 259.305877,67.1950288 C259.305877,62.5174979 260.038058,56.6495144 261.461333,52.7357695 C262.919374,48.8272922 264.990551,45.4508313 267.79707,42.6537942 C270.563556,39.8567572 273.94423,37.7076214 277.900115,36.132642 C281.856,34.56293 286.496658,33.5673745 291.527111,33.5673745 C296.410074,33.5673745 300.903243,34.1784033 305.280527,34.9105844 C309.657811,35.6374979 313.381926,36.401284 316.416,37.2440823 L316.416,96.7561811 L316.417053,96.7561811 Z" fill="#5468FF"></path>
		</g>
</svg>

<svg xmlns="http://www.w3.org/2000/svg" viewBox="0 0 511.324 126.422">
  <path fill="#5468ff" d="M16.645.002h93.13c9.165 0 16.645 7.443 16.645 16.645v93.135c0 9.165-7.443 16.64-16.646 16.64H16.645C7.48 126.422 0 118.984 0 109.782V16.605C0 7.445 7.438.002 16.645.002"/>
  <path fill="#fff" d="M76.384 28.224V23.89a5.488 5.488 0 0 0-5.489-5.483H58.1a5.488 5.488 0 0 0-5.488 5.483v4.451c0 .495.458.843.958.727a39.997 39.997 0 0 1 11.136-1.57c3.65 0 7.264.495 10.756 1.454a.74.74 0 0 0 .922-.727m-35.066 5.673-2.186-2.186a5.485 5.485 0 0 0-7.759 0L28.76 34.32a5.462 5.462 0 0 0 0 7.748l2.15 2.15c.347.342.848.263 1.153-.08a42.01 42.01 0 0 1 4.188-4.909 39.696 39.696 0 0 1 4.951-4.214c.384-.232.422-.769.116-1.117m23.35 13.764v18.753c0 .537.58.921 1.074.653l16.672-8.628c.38-.19.495-.654.306-1.033-3.456-6.063-9.872-10.203-17.283-10.472-.385 0-.77.306-.77.727m0 45.174c-13.9 0-25.193-11.277-25.193-25.157s11.293-25.153 25.194-25.153c13.906 0 25.195 11.273 25.195 25.153 0 13.88-11.251 25.157-25.195 25.157m0-60.892c-19.743 0-35.756 15.992-35.756 35.735 0 19.748 16.013 35.703 35.756 35.703 19.742 0 35.756-15.992 35.756-35.74S84.447 31.943 64.668 31.943"/>
  <path fill="#5468ff" d="M252.011 100.273c-24.615.115-24.615-19.865-24.615-23.046l-.042-74.846L242.371 0v74.387c0 1.807 0 13.232 9.64 13.27v12.615zm-60.87-12.232c4.607 0 8.027-.269 10.408-.727v-15.26a30.758 30.758 0 0 0-3.614-.732 35.547 35.547 0 0 0-5.22-.385 32.01 32.01 0 0 0-5.031.385c-1.691.232-3.23.69-4.572 1.343-1.344.653-2.46 1.575-3.266 2.76-.843 1.19-1.228 1.88-1.228 3.682 0 3.524 1.228 5.563 3.456 6.9 2.228 1.344 5.262 2.034 9.066 2.034zm-1.307-54.45c4.951 0 9.138.616 12.52 1.843 3.377 1.228 6.106 2.95 8.101 5.136 2.039 2.223 3.419 5.178 4.263 8.323.885 3.145 1.306 6.595 1.306 10.387v38.58c-2.302.495-5.8 1.069-10.482 1.759-4.684.69-9.945 1.037-15.788 1.037-3.877 0-7.448-.384-10.635-1.111-3.23-.727-5.952-1.917-8.26-3.566-2.265-1.649-4.03-3.761-5.336-6.363-1.269-2.613-1.922-6.29-1.922-10.124 0-3.682.727-6.021 2.154-8.555a18.153 18.153 0 0 1 5.874-6.21c2.496-1.612 5.335-2.76 8.601-3.45 3.266-.69 6.685-1.038 10.214-1.038 1.654 0 3.382.116 5.225.306 1.807.194 3.767.542 5.842 1.037v-2.454c0-1.723-.195-3.372-.616-4.904a10.548 10.548 0 0 0-2.155-4.104c-1.037-1.19-2.375-2.112-4.066-2.76-1.691-.653-3.845-1.154-6.416-1.154-3.456 0-6.605.422-9.487.922-2.881.495-5.262 1.075-7.069 1.723l-1.801-12.305c1.88-.653 4.683-1.306 8.296-1.954 3.608-.696 7.49-1.001 11.636-1.001zm296.57 54.028c4.61 0 8.023-.268 10.404-.732l-.002-15.254c-.842-.232-2.033-.5-3.608-.733a35.622 35.622 0 0 0-5.225-.384c-1.649 0-3.34.116-5.03.384-1.686.232-3.224.69-4.567 1.344-1.349.653-2.46 1.575-3.266 2.76-.848 1.19-1.228 1.88-1.228 3.682 0 3.524 1.228 5.562 3.456 6.9 2.265 1.38 5.262 2.033 9.065 2.033zm-1.27-54.407c4.952 0 9.139.61 12.52 1.838 3.377 1.227 6.106 2.95 8.102 5.136 1.996 2.186 3.419 5.178 4.261 8.322.885 3.145 1.307 6.595 1.307 10.393v38.574c-2.302.495-5.8 1.07-10.483 1.765-4.682.69-9.945 1.032-15.786 1.032-3.877 0-7.449-.385-10.634-1.112-3.23-.726-5.953-1.917-8.26-3.566-2.265-1.648-4.03-3.76-5.336-6.363-1.27-2.607-1.922-6.29-1.922-10.124 0-3.682.732-6.02 2.154-8.554a18.153 18.153 0 0 1 5.873-6.21c2.497-1.607 5.336-2.76 8.602-3.45 3.266-.69 6.685-1.033 10.219-1.033 1.649 0 3.377.116 5.22.305 1.844.19 3.766.538 5.837 1.038v-2.455c0-1.727-.19-3.376-.612-4.909a10.51 10.51 0 0 0-2.154-4.103c-1.038-1.19-2.376-2.113-4.066-2.76-1.692-.654-3.846-1.149-6.416-1.149-3.456 0-6.606.422-9.487.917-2.881.5-5.262 1.074-7.069 1.727l-1.801-12.31c1.88-.653 4.682-1.3 8.296-1.954 3.608-.653 7.485-.995 11.636-.995zm-45.089-7.133c5.03 0 9.144-4.066 9.144-9.091 0-5.02-4.072-9.087-9.144-9.087-5.067 0-9.14 4.067-9.14 9.087 0 5.025 4.11 9.091 9.14 9.091zm7.564 74.193h-15.092V35.545l15.091-2.376v67.103zm-26.46 0c-24.614.116-24.614-19.864-24.614-23.045l-.043-74.846L411.51 0v74.387c0 1.807 0 13.232 9.64 13.27zm-48.813-33.127c0-6.485-1.423-11.889-4.187-15.645-2.765-3.798-6.642-5.673-11.599-5.673-4.951 0-8.835 1.875-11.595 5.673-2.765 3.793-4.113 9.16-4.113 15.645 0 6.558 1.386 10.961 4.151 14.76 2.766 3.834 6.642 5.714 11.6 5.714 4.95 0 8.833-1.917 11.598-5.715 2.765-3.835 4.145-8.201 4.145-14.76zm15.36-.037c0 5.062-.727 8.891-2.227 13.074-1.496 4.177-3.609 7.743-6.332 10.698-2.729 2.95-5.994 5.252-9.835 6.864-3.84 1.606-9.756 2.528-12.71 2.528-2.961-.037-8.834-.88-12.638-2.528-3.803-1.65-7.069-3.914-9.792-6.864-2.728-2.955-4.84-6.521-6.378-10.698-1.534-4.183-2.302-8.012-2.302-13.074 0-5.062.69-9.935 2.228-14.075 1.538-4.14 3.687-7.67 6.452-10.62 2.766-2.954 6.068-5.22 9.83-6.826 3.802-1.612 7.99-2.375 12.52-2.375 4.535 0 8.718.8 12.558 2.375 3.845 1.607 7.149 3.872 9.835 6.827 2.723 2.95 4.836 6.479 6.374 10.62 1.612 4.14 2.418 9.012 2.418 14.074zm-113.024 0c0 6.284 1.38 13.263 4.146 16.176 2.765 2.918 6.335 4.372 10.719 4.372 2.381 0 4.646-.342 6.757-.995 2.112-.653 3.8-1.422 5.148-2.339v-37.23c-1.074-.232-5.568-1.154-9.913-1.265-5.452-.158-9.597 2.07-12.515 5.631-2.883 3.571-4.34 9.819-4.34 15.65zm41.745 29.598c0 10.24-2.613 17.714-7.876 22.471-5.257 4.751-13.285 7.132-24.114 7.132-3.956 0-12.174-.769-18.742-2.223l2.418-11.888c5.494 1.148 12.752 1.459 16.555 1.459 6.026 0 10.33-1.228 12.9-3.682 2.576-2.455 3.84-6.095 3.84-10.93V96.59c-1.496.727-3.455 1.46-5.873 2.228-2.418.727-5.22 1.112-8.375 1.112-4.146 0-7.912-.654-11.325-1.96-3.419-1.301-6.38-3.218-8.797-5.752-2.418-2.528-4.34-5.71-5.684-9.508-1.343-3.798-2.038-10.582-2.038-15.565 0-4.678.732-10.546 2.155-14.46 1.458-3.908 3.53-7.285 6.336-10.082 2.767-2.797 6.147-4.946 10.103-6.52 3.956-1.57 8.597-2.566 13.627-2.566 4.883 0 9.376.611 13.754 1.343 4.377.727 8.1 1.49 11.135 2.334v59.512z"/>
</svg>
